assets/backspace.svg

<svg fill="none" height="20" viewBox="0 0 30 20" width="30" xmlns="http://www.w3.org/2000/svg"><path d="m28.4465 10.041v-6.31736c0-.57515-.2345-1.09717-.6127-1.47852-.3782-.37823-.9034-.61267-1.4785-.61267h-16.81708c-.33446 0-.6408.06564-.90962.1938s-.51264.32509-.72207.58454l-6.13916 7.63021 6.13916 7.6302c.20943.2594.45325.4563.72207.5845s.57516.1938.90962.1938h16.81708c.5751 0 1.1003-.2344 1.4785-.6127.3782-.3813.6127-.9033.6127-1.4785zm-6.3986-4.16053c.3032-.3032.7939-.3032 1.0971 0 .3032.30321.3032.79397 0 1.09717l-3.0633 3.06336 3.0633 3.0633c.3032.3032.3032.794 0 1.0972s-.7939.3032-1.0971 0l-3.0634-3.0634-3.0633 3.0634c-.3032.3032-.794.3032-1.0972 0s-.3032-.794 0-1.0972l3.0634-3.0633-3.0634-3.06336c-.3032-.3032-.3032-.79396 0-1.09717.3032-.3032.794-.3032 1.0972 0l3.0633 3.06333zm7.9521-2.15683v12.63466c0 1.0034-.4095 1.9161-1.069 2.5726-.6596.6627-1.5723 1.069-2.5757 1.069h-16.81708c-.55953 0-1.09092-.1188-1.57542-.3501-.48138-.2313-.9065-.5689-1.25972-1.0096l-6.523638-8.1022c-.2313128-.2782-.2438162-.69083-.009378-.98153l6.533016-8.1147c.35322-.44074.77834-.778331 1.25972-1.009644.4845-.231312 1.01589-.3500948 1.57542-.3500948h16.81708c1.0034 0 1.9161.4063598 2.5757 1.0690388.6595.65643 1.069 1.56917 1.069 2.57257z" fill="#313131"/></svg>

<svg width="30" height="20" viewBox="0 0 30 20" fill="none" xmlns="http://www.w3.org/2000/svg">
<path d="M28.4465 10.041V3.72364C28.4465 3.14849 28.212 2.62647 27.8338 2.24512C27.4556 1.86689 26.9304 1.63245 26.3553 1.63245H9.53822C9.20376 1.63245 8.89742 1.69809 8.6286 1.82625C8.35978 1.95441 8.11596 2.15134 7.90653 2.41079L1.76737 10.041L7.90653 17.6712C8.11596 17.9306 8.35978 18.1275 8.6286 18.2557C8.89742 18.3839 9.20376 18.4495 9.53822 18.4495H26.3553C26.9304 18.4495 27.4556 18.2151 27.8338 17.8368C28.212 17.4555 28.4465 16.9335 28.4465 16.3583V10.041ZM22.0479 5.88047C22.3511 5.57727 22.8418 5.57727 23.145 5.88047C23.4482 6.18368 23.4482 6.67444 23.145 6.97764L20.0817 10.041L23.145 13.1043C23.4482 13.4075 23.4482 13.8983 23.145 14.2015C22.8418 14.5047 22.3511 14.5047 22.0479 14.2015L18.9845 11.1381L15.9212 14.2015C15.618 14.5047 15.1272 14.5047 14.824 14.2015C14.5208 13.8983 14.5208 13.4075 14.824 13.1043L17.8874 10.041L14.824 6.97764C14.5208 6.67444 14.5208 6.18368 14.824 5.88047C15.1272 5.57727 15.618 5.57727 15.9212 5.88047L18.9845 8.9438L22.0479 5.88047ZM30 3.72364V16.3583C30 17.3617 29.5905 18.2744 28.931 18.9309C28.2714 19.5936 27.3587 19.9999 26.3553 19.9999H9.53822C8.97869 19.9999 8.4473 19.8811 7.9628 19.6498C7.48142 19.4185 7.0563 19.0809 6.70308 18.6402L0.179442 10.538C-0.0518708 10.2598 -0.0643742 9.84717 0.170064 9.55647L6.70308 1.44177C7.0563 1.00103 7.48142 0.663439 7.9628 0.432126C8.4473 0.200814 8.97869 0.0820312 9.53822 0.0820312H26.3553C27.3587 0.0820312 28.2714 0.488391 28.931 1.15107C29.5905 1.8075 30 2.72024 30 3.72364Z" fill="#313131"/>
</svg>
